X:40
T:Sean Ryan's Jig
S:Bernie Waugh
R:Jig
M:6/8
L:1/8
K:Am
|:A/B/|\
"Am"cBA BAG|"G"AGE DB,G,|"Am"~A,2A, EDB,|"F"DEG AGA|
"Dm"cBA B/c/dB|"F"AGE "G"DB,G,|"Am"~A,2A, EDB,|"G"DB,G, "Am"A,2:|
|:B|\
"Am"cBA a2a|"Em"bag "F"edB|"G"GBd ~g3|"E7"Bcd cAB|
"C"~c3 "D"~d3|"Em"ede gab|"F"age "G"dcA|"E7"E^F^G "Am"A2:|

